X:893
T:Avant de s'en Aller - bourree
C:Pierre Imbert
B:Massif Central Tune Book nr.2, compilation Mel Stevens, publisher Dragonfly Music, Newbiggin by the Sea,  2nd edition, 1992
Z:abc transcription Simon Wascher
N:please mail errors to: simon.wascher@chello.at
M:2/4
L:1/8
K:G
F3/2A/2 GF|A3A/2B/2|c3B|A/2B/2A/2G/2 AG|
F3/2A/2 GF|A3A/2B/2|c3/2B/2 cd|A4:|
|:F/2A/2d/2F/2 Ad|cB A/2B/2A/2G/2|F/2A/2d/2F/2 Ad|cA B2|
F/2A/2d/2F/2 Ad|cB AG|F/2A/2d/2F/2 AF|G4:|
